X:3392
T:Coolan. JC.047
M:3/4
L:1/16
Q:100
S:John Clare,Poet,Helpston. (1793-1864)
R:Air
O:England
A:Northamptonshire
N:A beautiful Irish tune for the bellows pipes.CGP.
Z:P Headford
K:D
A3B/c/|d4 d3f{f} e2dc|d4A4 D3F/A/|d3c d3f/g/ e3d|!
d4{ed}c4 d3c|B4 B2cd {e}d2cB|A4F3A d3A|{c}B2AG F3DE4{DE}|D8:|!
|:A3G|F3E D3E F3G|
A3G A3B  A3B/c/|d3c d3e/f/ e3d|d4{ed}c4 d3c|!B4B2cd {e}d2cB|
A4F3A B3A|{c}B2AG F3DE4{EF}|D8:|]
W:Song text exists.(or not). See Deacon.


